X:1
T:Title
%%score ( 1 2 ) { 3 | 4 }
L:1/8
Q:1/4=95
M:3/4
K:C
V:1 treble nm="Grand Piano, Soprano"
V:2 treble 
V:3 treble nm="Choir Pad, Columbia Heights, 87.87 D"
V:4 bass 
V:1
 [EG]>[EG] [EA]2 [EG]2 | [Ec]>G [GB]2 [FA]2 | [FA][GA] [Af]3 [Ae] | [Ad]A c2 B2 | %4
w: By~Adam~Geibel,~1879 * * *||||
 [FG]>[FG] [EA]2 [EG]2 | [Ec]>G [GB]2 [FA]2 | [Ad][Ae] [Af][Ad] [FA]2 | [GB]2 [Gc]4 | %8
w: ||||
 [Gd][Ge] [Gf]3 [Gd] | [GB]>[FG] [EA]2 [EG]2 | cd ed cB | A[_EG] [=E^G]4 | [FG]>[FG] [EA]2 [EG]2 | %13
w: |||||
 [Ec]>G [G_B]2 [FA]2 | [Ad][Ae] [Ag][Af] [FA]2 | [GB]2 [Gc]4- | [Gc]4 z2 |] %17
w: ||||
V:2
 x6 | x6 | x6 | z2 G4 | x6 | x6 | x6 | x6 | x6 | x6 | x6 | x6 | x6 | x6 | x6 | x6 | x6 |] %17
V:3
 C>C C2 C2 | C>C C2 C2 | C^C D3 C | D_E =E2 D2 | B,>B, C2 C2 | C>C C2 C2 | D^C DD D2 | F2 E4 | %8
 B,C D3 B, | D>B, C2 C2 | CD ED C[K:bass]B, | A,A, B,4 | B,>B,[K:treble] C2 C2 | C>C C2 C2 | %14
 D^C DD D2 | F2 E4- | E4 z2 |] %17
V:4
 C,>C, C,2 C,2 | C,>E, F,2 F,2 | F,E, D,3 E, | F,^F, G,4 | G,>G, C,2 C,2 | C,>E, F,2 F,2 | %6
 F,E, D,F, G,2 | G,2 C,4 | G,G, G,3 G, | G,>G, C,2 C,2 | z6 | z F, E,4 | D,>D, C,2 C,2 | %13
 C,>E, F,2 F,2 | F,E, D,F, G,2 | G,2 C,4- | C,4 z2 |] %17

